views/1/public/assets/AMLBot.svg

<svg fill="none" height="80" viewBox="0 0 180 80" width="180" xmlns="http://www.w3.org/2000/svg"><path clip-rule="evenodd" d="m30.3327 31.7358 2.9762-5.0376h-5.6773l-.2026.343z" fill="#c2beda" fill-rule="evenodd"/><path d="m27.4747 27.0371-17.1098 27.9629h7.024l10.0858-16.6405 6.8439 11.3224h-4.5026l-2.3413-3.7742-5.4031 9.0923h22.693z" fill="#ececf1"/><path clip-rule="evenodd" d="m36.157 41.1544-2.8866-4.7235 5.7499-9.7327h5.6773z" fill="#a29eb6" fill-rule="evenodd"/><path clip-rule="evenodd" d="m33.2455 36.43 5.7494-9.7318h-5.6773l-2.9587 5.0081z" fill="#b9b9c8" fill-rule="evenodd"/><g fill="#ececf1"><path d="m69.5159 54.59c-.2174-.703-.4643-1.4255-.7412-2.1675-.2572-.7421-.5143-1.4842-.7714-2.2262h-8.0093c-.2571.742-.524 1.4841-.8009 2.2262-.2571.742-.4944 1.4645-.7119 2.1675h-4.8055c.7712-2.1871 1.5029-4.2082 2.1951-6.0634.6921-1.8551 1.3645-3.6028 2.0171-5.2431.6724-1.6403 1.325-3.1928 1.9578-4.6574.6526-1.4841 1.325-2.9291 2.0172-4.3351h4.4201c.672 1.406 1.3344 2.851 1.9871 4.3351.6527 1.4646 1.3054 3.0171 1.9581 4.6574.672 1.6403 1.3542 3.388 2.0466 5.2431.6925 1.8552 1.4241 3.8763 2.1954 6.0634zm-5.5468-15.7002c-.0988.2929-.2475.6932-.445 1.2009-.1981.5077-.4251 1.0936-.6822 1.7575-.2572.6639-.544 1.3962-.8604 2.1969-.2966.8006-.6032 1.6403-.9196 2.519h5.8438c-.3162-.8787-.6227-1.7184-.9195-2.519-.2968-.8007-.5835-1.533-.8604-2.1969-.2571-.6639-.4842-1.2498-.6822-1.7575-.1976-.5077-.3559-.908-.4745-1.2009z"/><path d="m82.5892 34.291c.3559.6444.7612 1.4451 1.2158 2.4019.475.9373.9592 1.9625 1.4535 3.0756.5142 1.0935 1.0188 2.2164 1.5132 3.3686.4943 1.1521.9591 2.2359 1.3939 3.2513.4353-1.0154.9002-2.0992 1.3945-3.2513.4944-1.1522.9887-2.2751 1.4831-3.3686.5142-1.1131.9989-2.1383 1.4535-3.0756.4745-.9568.8899-1.7575 1.2458-2.4019h4.2125c.1975 1.3474.3757 2.8608.5341 4.5402.1776 1.6599.3258 3.3978.4444 5.2139.1385 1.7965.2571 3.6028.3564 5.4189.1186 1.8161.2174 3.5247.2963 5.126h-4.5088c-.059-1.9723-.1385-4.1203-.2372-6.4441-.0988-2.3238-.2475-4.6671-.445-7.03-.3558.8202-.7514 1.7282-1.1868 2.7241-.4347.996-.87 1.9918-1.3048 2.9877-.4155.996-.8207 1.9528-1.2163 2.8706-.3956.8983-.7316 1.6696-1.0086 2.3141h-3.2334c-.277-.6445-.613-1.4158-1.0086-2.3141-.3956-.9178-.811-1.8746-1.2458-2.8706-.4154-.9959-.8405-1.9917-1.2753-2.9877-.4353-.9959-.8309-1.9039-1.1868-2.7241-.1975 2.3629-.3462 4.7062-.445 7.03-.0987 2.3238-.1782 4.4718-.2372 6.4441h-4.5088c.0789-1.6013.168-3.3099.2668-5.126.1186-1.8161.2372-3.6224.3559-5.4189.1384-1.8161.2866-3.554.4449-5.2139.1783-1.6794.3661-3.1928.5636-4.5402z"/><path d="m117.487 50.665v3.925h-13.734v-20.299h4.628v16.374z"/><path d="m127.32 54.8536c-1.127 0-2.255-.0391-3.382-.1172-1.107-.0586-2.264-.2148-3.47-.4686v-19.6839c.949-.1758 1.987-.3027 3.114-.3808 1.128-.0977 2.176-.1465 3.145-.1465 1.305 0 2.502.0977 3.589.293 1.108.1757 2.057.4882 2.848.9373s1.404 1.0447 1.839 1.7868c.455.7225.682 1.6208.682 2.6948 0 1.6208-.79 2.8998-2.373 3.8371 1.306.4882 2.196 1.1522 2.67 1.9919.475.8397.712 1.7868.712 2.8413 0 2.1285-.791 3.7297-2.373 4.8037-1.563 1.074-3.896 1.6111-7.001 1.6111zm-2.343-9.1096v5.2431c.336.0391.702.0683 1.097.0879.396.0195.831.0293 1.305.0293 1.385 0 2.502-.1953 3.352-.5859.851-.3905 1.276-1.113 1.276-2.1676 0-.9373-.356-1.6012-1.068-1.9917-.712-.4101-1.73-.6151-3.055-.6151zm0-3.4858h2.254c1.424 0 2.443-.1757 3.056-.5272.612-.371.919-.9569.919-1.7575 0-.8201-.316-1.3962-.949-1.7282s-1.563-.4979-2.788-.4979c-.396 0-.821.0097-1.276.0292-.455 0-.86.0196-1.216.0586z"/><path d="m154.696 46.8571c0 1.2107-.178 2.3238-.534 3.3393-.356.9959-.87 1.8551-1.542 2.5776-.673.703-1.483 1.2498-2.433 1.6403-.929.3906-1.977.5859-3.144.5859-1.147 0-2.195-.1953-3.144-.5859-.93-.3905-1.731-.9373-2.403-1.6403-.673-.7225-1.196-1.5817-1.572-2.5776-.376-1.0155-.564-2.1286-.564-3.3393s.188-2.314.564-3.3099c.395-.9959.929-1.8454 1.602-2.5484.691-.7029 1.502-1.2497 2.432-1.6403.949-.3905 1.977-.5858 3.085-.5858 1.127 0 2.155.1953 3.085.5858.949.3906 1.76.9374 2.432 1.6403.673.703 1.197 1.5525 1.572 2.5484.376.9959.564 2.0992.564 3.3099zm-4.509 0c0-1.3474-.277-2.4019-.83-3.1634-.534-.7812-1.306-1.1717-2.314-1.1717-1.009 0-1.79.3905-2.344 1.1717-.553.7615-.83 1.816-.83 3.1634s.277 2.4214.83 3.2221c.554.7811 1.335 1.1716 2.344 1.1716 1.008 0 1.78-.3905 2.314-1.1716.553-.8007.83-1.8747.83-3.2221z"/><path d="m157.972 35.3455 4.42-.7029v4.5401h5.309v3.6322h-5.309v5.4189c0 .9178.158 1.6501.474 2.1969.337.5467.999.8201 1.988.8201.474 0 .959-.0391 1.453-.1172.514-.0976.979-.2245 1.394-.3807l.623 3.3978c-.534.2148-1.127.4003-1.78.5565-.652.1562-1.453.2343-2.402.2343-1.207 0-2.205-.1562-2.996-.4686-.791-.332-1.424-.7811-1.899-1.3474-.474-.5859-.811-1.2888-1.008-2.109-.179-.8202-.267-1.7282-.267-2.7241z"/></g></svg>

<?xml version="1.0" encoding="UTF-8"?> <svg xmlns="http://www.w3.org/2000/svg" width="180" height="80" viewBox="0 0 180 80" fill="none"><path fill-rule="evenodd" clip-rule="evenodd" d="M30.3327 31.7358L33.3089 26.6982H27.6316L27.429 27.0412L30.3327 31.7358Z" fill="#C2BEDA"></path><path d="M27.4747 27.0371L10.3649 55H17.3889L27.4747 38.3595L34.3186 49.6819H29.816L27.4747 45.9077L22.0716 55H44.7646L27.4747 27.0371Z" fill="#ECECF1"></path><path fill-rule="evenodd" clip-rule="evenodd" d="M36.157 41.1544L33.2704 36.4309L39.0203 26.6982H44.6976L36.157 41.1544Z" fill="#A29EB6"></path><path fill-rule="evenodd" clip-rule="evenodd" d="M33.2455 36.43L38.9949 26.6982H33.3176L30.3589 31.7063L33.2455 36.43Z" fill="#B9B9C8"></path><path d="M69.5159 54.59C69.2985 53.887 69.0516 53.1645 68.7747 52.4225C68.5175 51.6804 68.2604 50.9383 68.0033 50.1963H59.994C59.7369 50.9383 59.47 51.6804 59.1931 52.4225C58.936 53.1645 58.6987 53.887 58.4812 54.59H53.6757C54.4469 52.4029 55.1786 50.3818 55.8708 48.5266C56.5629 46.6715 57.2353 44.9238 57.8879 43.2835C58.5603 41.6432 59.2129 40.0907 59.8457 38.6261C60.4983 37.142 61.1707 35.697 61.8629 34.291H66.283C66.955 35.697 67.6174 37.142 68.2701 38.6261C68.9228 40.0907 69.5755 41.6432 70.2282 43.2835C70.9002 44.9238 71.5824 46.6715 72.2748 48.5266C72.9673 50.3818 73.6989 52.4029 74.4702 54.59H69.5159ZM63.9691 38.8898C63.8703 39.1827 63.7216 39.583 63.5241 40.0907C63.326 40.5984 63.099 41.1843 62.8419 41.8482C62.5847 42.5121 62.2979 43.2444 61.9815 44.0451C61.6849 44.8457 61.3783 45.6854 61.0619 46.5641H66.9057C66.5895 45.6854 66.283 44.8457 65.9862 44.0451C65.6894 43.2444 65.4027 42.5121 65.1258 41.8482C64.8687 41.1843 64.6416 40.5984 64.4436 40.0907C64.246 39.583 64.0877 39.1827 63.9691 38.8898Z" fill="#ECECF1"></path><path d="M82.5892 34.291C82.9451 34.9354 83.3504 35.7361 83.805 36.6929C84.28 37.6302 84.7642 38.6554 85.2585 39.7685C85.7727 40.862 86.2773 41.9849 86.7717 43.1371C87.266 44.2892 87.7308 45.373 88.1656 46.3884C88.6009 45.373 89.0658 44.2892 89.5601 43.1371C90.0545 41.9849 90.5488 40.862 91.0432 39.7685C91.5574 38.6554 92.0421 37.6302 92.4967 36.6929C92.9712 35.7361 93.3866 34.9354 93.7425 34.291H97.955C98.1525 35.6384 98.3307 37.1518 98.4891 38.8312C98.6667 40.4911 98.8149 42.229 98.9335 44.0451C99.072 45.8416 99.1906 47.6479 99.2899 49.464C99.4085 51.2801 99.5073 52.9887 99.5862 54.59H95.0774C95.0184 52.6177 94.9389 50.4697 94.8402 48.1459C94.7414 45.8221 94.5927 43.4788 94.3952 41.1159C94.0394 41.9361 93.6438 42.8441 93.2084 43.84C92.7737 44.836 92.3384 45.8318 91.9036 46.8277C91.4881 47.8237 91.0829 48.7805 90.6873 49.6983C90.2917 50.5966 89.9557 51.3679 89.6787 52.0124H86.4453C86.1683 51.3679 85.8323 50.5966 85.4367 49.6983C85.0411 48.7805 84.6257 47.8237 84.1909 46.8277C83.7755 45.8318 83.3504 44.836 82.9156 43.84C82.4803 42.8441 82.0847 41.9361 81.7288 41.1159C81.5313 43.4788 81.3826 45.8221 81.2838 48.1459C81.1851 50.4697 81.1056 52.6177 81.0466 54.59H76.5378C76.6167 52.9887 76.7058 51.2801 76.8046 49.464C76.9232 47.6479 77.0418 45.8416 77.1605 44.0451C77.2989 42.229 77.4471 40.4911 77.6054 38.8312C77.7837 37.1518 77.9715 35.6384 78.169 34.291H82.5892Z" fill="#ECECF1"></path><path d="M117.487 50.665V54.59H103.753V34.291H108.381V50.665H117.487Z" fill="#ECECF1"></path><path d="M127.32 54.8536C126.193 54.8536 125.065 54.8145 123.938 54.7364C122.831 54.6778 121.674 54.5216 120.468 54.2678V34.5839C121.417 34.4081 122.455 34.2812 123.582 34.2031C124.71 34.1054 125.758 34.0566 126.727 34.0566C128.032 34.0566 129.229 34.1543 130.316 34.3496C131.424 34.5253 132.373 34.8378 133.164 35.2869C133.955 35.736 134.568 36.3316 135.003 37.0737C135.458 37.7962 135.685 38.6945 135.685 39.7685C135.685 41.3893 134.895 42.6683 133.312 43.6056C134.618 44.0938 135.508 44.7578 135.982 45.5975C136.457 46.4372 136.694 47.3843 136.694 48.4388C136.694 50.5673 135.903 52.1685 134.321 53.2425C132.758 54.3165 130.425 54.8536 127.32 54.8536ZM124.977 45.744V50.9871C125.313 51.0262 125.679 51.0554 126.074 51.075C126.47 51.0945 126.905 51.1043 127.379 51.1043C128.764 51.1043 129.881 50.909 130.731 50.5184C131.582 50.1279 132.007 49.4054 132.007 48.3508C132.007 47.4135 131.651 46.7496 130.939 46.3591C130.227 45.949 129.209 45.744 127.884 45.744H124.977ZM124.977 42.2582H127.231C128.655 42.2582 129.674 42.0825 130.287 41.731C130.899 41.36 131.206 40.7741 131.206 39.9735C131.206 39.1534 130.89 38.5773 130.257 38.2453C129.624 37.9133 128.694 37.7474 127.469 37.7474C127.073 37.7474 126.648 37.7571 126.193 37.7766C125.738 37.7766 125.333 37.7962 124.977 37.8352V42.2582Z" fill="#ECECF1"></path><path d="M154.696 46.8571C154.696 48.0678 154.518 49.1809 154.162 50.1964C153.806 51.1923 153.292 52.0515 152.62 52.774C151.947 53.477 151.137 54.0238 150.187 54.4143C149.258 54.8049 148.21 55.0002 147.043 55.0002C145.896 55.0002 144.848 54.8049 143.899 54.4143C142.969 54.0238 142.168 53.477 141.496 52.774C140.823 52.0515 140.3 51.1923 139.924 50.1964C139.548 49.1809 139.36 48.0678 139.36 46.8571C139.36 45.6464 139.548 44.5431 139.924 43.5472C140.319 42.5513 140.853 41.7018 141.526 40.9988C142.217 40.2959 143.028 39.7491 143.958 39.3585C144.907 38.968 145.935 38.7727 147.043 38.7727C148.17 38.7727 149.198 38.968 150.128 39.3585C151.077 39.7491 151.888 40.2959 152.56 40.9988C153.233 41.7018 153.757 42.5513 154.132 43.5472C154.508 44.5431 154.696 45.6464 154.696 46.8571ZM150.187 46.8571C150.187 45.5097 149.91 44.4552 149.357 43.6937C148.823 42.9125 148.051 42.522 147.043 42.522C146.034 42.522 145.253 42.9125 144.699 43.6937C144.146 44.4552 143.869 45.5097 143.869 46.8571C143.869 48.2045 144.146 49.2785 144.699 50.0792C145.253 50.8603 146.034 51.2508 147.043 51.2508C148.051 51.2508 148.823 50.8603 149.357 50.0792C149.91 49.2785 150.187 48.2045 150.187 46.8571Z" fill="#ECECF1"></path><path d="M157.972 35.3455L162.392 34.6426V39.1827H167.701V42.8149H162.392V48.2338C162.392 49.1516 162.55 49.8839 162.866 50.4307C163.203 50.9774 163.865 51.2508 164.854 51.2508C165.328 51.2508 165.813 51.2117 166.307 51.1336C166.821 51.036 167.286 50.9091 167.701 50.7529L168.324 54.1507C167.79 54.3655 167.197 54.551 166.544 54.7072C165.892 54.8634 165.091 54.9415 164.142 54.9415C162.935 54.9415 161.937 54.7853 161.146 54.4729C160.355 54.1409 159.722 53.6918 159.247 53.1255C158.773 52.5396 158.436 51.8367 158.239 51.0165C158.06 50.1963 157.972 49.2883 157.972 48.2924V35.3455Z" fill="#ECECF1"></path></svg>
